!!!!SEGMENT: pl-wtm--r-513-3-m_moniuszko-stanislaw--flis-odkad-zyje-w-tem-tu-miescie.krn
!!!cenid: 18xx:2979
!!!COM: Moniuszko, Stanisław
!!!COM-rismID: pe30008351
!!!CDT: 1819/05/05-1872/06/04
!!!CNT: Polish
!!!GTL: Flis
!!!OTL: Odkąd żyję w tem tu mieście
!!!PDT: 1858
!!!AGN: Secular
!!!SMS-siglum: PL-Wtm
!!!SMS-shelfmark: R 513-3/M
!!!SMS-shelfwork: G
!!!SMS-variant:
!!!SMS-altvar:
!!!NIFC-rismSourceID: 1001086411
!!!NIFC-rismChildID: 1001086411
!!!NIFC-islandoraID:
!!!URL-pdf-islandora:
!!!URL-scan:
!!!ONB-nifc:
!!!OMD: Allegretto.
!!!AIN: 1 empty 1 forte
!!!key:
**kern	**fing	**kern	**fing	**dynam	**kern	**text	**dynam
*group1	*	*group1	*	*	*	*	*
*part2	*	*part2	*	*part2	*part1	*part1	*part1
*staff3	*	*staff2	*	*	*staff1	*staff1	*
*Iforte	*	*Iempty	*	*	*Iempty	*	*
*I"fortepian	*	*	*	*	*I"głos	*	*
*clefF4	*	*clefG2	*	*	*clefG2	*	*
*k[f#c#]	*	*k[f#c#]	*	*	*k[f#c#]	*	*
*D:	*	*D:	*	*	*D:	*	*
*M2/4	*	*M2/4	*	*	*M2/4	*	*
=1	=1	=1	=1	=1	=1	=1	=1
!	!	!	!	!LO:DY:rj	!	!	!
8D/ 8DD/	.	8ddd\|L 8ff#\ 8dd\|	.	f	2r	.	.
(16A\LL 16D\	.	[8fff#\J [8ff#^^\	.	.	.	.	.
16d\JJ	.	.	.	.	.	.	.
!	!	!LO:TX:b:t=A:color=purple	!	!	!	!	!
16A\LL 16D\	.	16fff#\]LL 16ff#\]	.	.	.	.	.
16d\	.	16eee'\	.	.	.	.	.
16A\ 16D\	.	16fff#'\	.	.	.	.	.
16d\JJ)	.	16ddd'\JJ	.	.	.	.	.
=2	=2	=2	=2	=2	=2	=2	=2
(16A\LL 16D\	.	16ccc#'\LL	.	.	2r	.	.
16c#\)	.	16eee'\	.	.	.	.	.
*	*color:purple	*	*	*	*	*	*
(16B\	3	16ddd'\	.	.	.	.	.
16d\JJ)	1	16bb'\JJ	.	.	.	.	.
!	!	!LO:TX:b:t=B:color=purple	!	!	!	!	!
(16c#\LL	2	16aa'\LL	.	.	.	.	.
16e\)	1	16bb'\	.	.	.	.	.
(16c#\ 16A\ 16G\	.	16gg'\	.	.	.	.	.
16e\JJ)	.	16ee'\JJ	.	.	.	.	.
=3	=3	=3	=3	=3	=3	=3	=3
8A\ 8F#\	4 2	(16cc#\LL	.	.	2ryy	.	.
.	.	16aa\JJ)	.	.	.	.	.
!	!	!LO:TX:b:t=C:color=purple	!	!	!	!	!
8F#/L 8FF#/	.	(4ff#^\	.	.	.	.	.
8G/ 8GG/	.	.	.	.	.	.	.
8G#X/J 8GG#X/	.	32ee\LLL	.	.	.	.	.
.	.	32dd\	.	.	.	.	.
.	.	32cc#\	.	.	.	.	.
.	.	32b\JJJ	.	.	.	.	.
=4	=4	=4	=4	=4	=4	=4	=4
*	*	*^	*	*	*	*	*
8A/ 8AA/	.	8a/)	8ryy	.	.	2r	.	.
!	!	!LO:TX:b:t=D:color=purple	!	!	!	!	!	!
8d\L 8B\	.	(32ee/LLL	(>8f#\	.	.	.	.	.
.	.	32dd/	.	.	.	.	.	.
.	.	32cc#/	.	.	.	.	.	.
.	.	32dd/JJJ	.	.	.	.	.	.
8d\J 8B\ 8G\	.	8e/)	8e\)	.	.	.	.	.
8G\ 8GG\	.	8a/ 8e/ 8c#/	8ryy	.	.	.	.	.
*	*	*v	*v	*	*	*	*	*
!!LO:LB:g=original
=5	=5	=5	=5	=5	=5	=5	=5
8F#\L 8D'\	.	8d/	.	.	2r	.	.
8d\J 8A\ 8F#'\	.	8r	.	p	.	.	.
4d\ 4A\ 4F#'\	.	4r	.	.	.	.	.
=6	=6	=6	=6	=6	=6	=6	=6
8D'\L	.	4r	.	.	4r	.	.
8d\J 8A\ 8F#'\	.	.	.	.	.	.	.
4d\ 4A\ 4F#'\	.	8r	.	.	8r	.	.
*	*	*	*	*	*	*color:purple	*
.	.	8aa'\	.	.	16a/	Od-	.
.	.	.	.	.	16a/	-kąd	.
=7	=7	=7	=7	=7	=7	=7	=7
!LO:TX:t=P:problem=mixed beam	!	!	!	!	!	!	!
.	.	(>8qaa/	.	.	.	.	.
8DD/L	.	8ddd'\L)	.	.	8dd\	ży-	.
8d\J 8A\ 8F#\	.	8ff#'\J	.	.	8f#/	-ję	.
4d\ 4A\ 4F#\	.	4ff#tt\	.	.	8f#/	w tem	.
.	.	.	.	.	16g/LL	tu	.
.	.	.	.	.	16a/JJ	.	.
.	.	(>32qqee/LLL	.	.	.	.	.
.	.	32qqff#/	.	.	.	.	.
.	.	32qqgg/	.	.	.	.	.
.	.	32qqaa/JJJ	.	.	.	.	.
=8	=8	=8	=8	=8	=8	=8	=8
!LO:TX:t=P:problem=mixed beam	!	!	!	!	!	!	!
8GG/L	.	8bb'\L)	.	.	8b/	mieś-	.
8e\J 8d\ 8B\ 8G\	.	8ee'\J	.	.	8e/	-cie,	.
4e\ 4d\ 4B\ 4G\	.	8ee'\	.	.	8.e/	mia-	.
.	.	(16ee\LL	.	.	.	.	.
.	.	16ff#\JJ)	.	.	16f#/	-łem	.
=9	=9	=9	=9	=9	=9	=9	=9
!LO:TX:t=P:problem=mixed beam	!	!	!	!	!	!	!
8AA/L	.	(16gg\LL	.	.	8g/	ro-	.
.	.	16ee\)	.	.	.	.	.
8g\J 8e\ 8A\	.	16b'\	.	.	8g/	-man-	.
.	.	16cc#'\JJ	.	.	.	.	.
4g\ 4c#\ 4A\	.	8a'/	.	.	8e/	-sów	.
.	.	(16bb\LL	.	.	16b/LL	ze	.
.	.	16aa\JJ)	.	.	16a/JJ	.	.
!!LO:LB:g=original
=10	=10	=10	=10	=10	=10	=10	=10
!LO:TX:t=P:problem=mixed beam	!	!	!	!	!	!	!
8D/L	.	(16gg#X\LL	.	.	8g#X/	dwie-	.
.	.	16bb\)	.	.	.	.	.
8f#\J 8A'\	.	16aa'\	.	.	8a/	-ście,	.
.	.	16dd'\JJ	.	.	.	.	.
8d\ 8A\ 8F#'\	.	8ff#'\	.	.	8f#/	mło-	.
8r	.	8aa'\	.	.	8a/	-da	.
=11	=11	=11	=11	=11	=11	=11	=11
!LO:TX:t=P:problem=mixed beam	!	!	!	!	!	!	!
.	.	16qqaa/	.	.	.	.	.
8DD/L	.	8ddd'\L	.	.	8dd\	wdó-	.
8d\J 8A\ 8F#\	.	8ff#'\J	.	.	8f#/	-wka	.
8d\ 8A\ 8F#\	.	(8ff#^\L	.	.	8f#/	lub	.
8r	.	16gg\L	.	.	16g/LL	mę-	.
.	.	16aa\JJ)	.	.	16a/JJ	.	.
=12	=12	=12	=12	=12	=12	=12	=12
!LO:TX:t=P:problem=mixed beam	!	!	!	!	!	!	!
8GG/L	.	(16ccc#\LL	.	.	8.cc#\	-żat-	.
.	.	16bb\	.	.	.	.	.
8e\J 8B\ 8G\	.	16gg\	.	.	.	.	.
.	.	16ee\JJ	.	.	16b\	-ka,	.
8e\ 8B\ 8G\	.	8b'\)	.	.	8b\	to	.
8r	.	16ee'\LL	.	.	16e/LL	mi	.
.	.	16ff#'\JJ	.	.	16f#/JJ	.	.
=13	=13	=13	=13	=13	=13	=13	=13
!LO:TX:t=P:problem=mixed beam	!	!	!	!	!	!	!
8AA/L	.	(16gg\LL	.	.	8g/	ką-	.
.	.	16ee\)	.	.	.	.	.
8e\J 8A\ 8G\	.	16b'\	.	.	8e/	-sek!	.
.	.	16dd'\JJ	.	.	.	.	.
8c#\ 8A\ 8E\	.	8a'/	.	.	8.a/	to	.
8r	.	(16aa\LL	.	.	.	.	.
.	.	16gg\JJ)	.	.	16g/	mi	.
!!LO:LB:g=original
=14	=14	=14	=14	=14	=14	=14	=14
8D'\L	.	8ff#'\L	.	.	8f#/	grat-	.
8d'\J 8A'\ 8F#'\	.	8dd'\J	.	.	8d/	-ka!	.
8d'\ 8A'\ 8F#'\ 8D'\	.	8dd\	.	.	8r	.	.
8r	.	16ff#'\LL	.	.	16f#/	I	.
.	.	16ee'\JJ	.	.	16f#/	choć	.
=15	=15	=15	=15	=15	=15	=15	=15
!LO:TX:t=P:problem=mixed beam	!	!LO:TX:b:t=E:color=purple	!	!	!	!	!
8BB'/L	.	16dd'\LL	.	.	8b/	przy	.
.	.	16ff#'\	.	.	.	.	.
8d\J 8B\ 8F#'\	.	16ee'\	.	.	8b/	tej	.
.	.	16dd'\JJ	.	.	.	.	.
4e\ 4c#\ 4B\ 4G^\	.	16ee'\LL	.	.	8g/	spo-	.
.	.	16cc#'\	.	.	.	.	.
.	.	16dd'\	.	.	8g/	-sob-	.
.	.	16ee'\JJ	.	.	.	.	.
=16	=16	=16	=16	=16	=16	=16	=16
!LO:TX:t=P:problem=mixed beam	!	!LO:TX:b:t=F:color=purple	!	!	!	!	!
8BB'/L	.	8dd'\L	.	.	8f#/	-noś-	.
8d\J 8F#'\	.	8b'\J	.	.	8f#/	-ci	.
8B\ 8D'\	.	(8b^\L	.	.	8r	.	.
8r	.	16cc#\L	.	.	16b\	czę-	.
.	.	16dd\JJ)	.	.	16b\	-sto	.
=17	=17	=17	=17	=17	=17	=17	=17
8E'\L	.	(16ee\LL	.	.	8e/	mi-	.
!	!	!LO:TX:b:t=G:color=purple	!	!	!	!	!
.	.	16dd\)	.	.	.	.	.
8e\J 8c#\ 8A'\	.	16cc#'\	.	.	8cc#\	-ła	.
.	.	16aa'\JJ	.	.	.	.	.
8E'\L	.	16dd'\LL	.	.	8b\	ma	.
.	.	16cc#'\	.	.	.	.	.
8e\J 8B\ 8G#X'\	.	16dd'\	.	.	8g#/	no	.
.	.	16b'\JJ	.	.	.	.	.
!!LO:PB:g=original
=18	=18	=18	=18	=18	=18	=18	=18
8A'\L	.	8cc#'/L	.	.	4a/	koś-	.
8e\J 8c#'\	.	8a'/J	.	.	.	.	.
(<4e\ 4c#\ 4A\	.	8a^\L	.	.	8a/	-ci,	.
.	.	16b'\L	.	.	16a/	prze-	.
.	.	16cc#'\JJ	.	.	16a/	-cież	.
=19	=19	=19	=19	=19	=19	=19	=19
*^	*	*	*	*	*	*	*
2e/	4B\ 4G#X\	.	16dd'\LL	.	.	8b/	o	.
.	.	.	16b'\	.	.	.	.	.
.	.	.	16cc#'\	.	.	8b/	tom	.
.	.	.	16dd'\JJ	.	.	.	.	.
.	4A\ 4Gn\	.	16ee'\LL	.	.	8a/	dbał	.
.	.	.	16cc#'\	.	.	.	.	.
.	.	.	16dd'\	.	.	8a/	nie-	.
.	.	.	16ee'\JJ	.	.	.	.	.
*v	*v	*	*	*	*	*	*	*
=20	=20	=20	=20	=20	=20	=20	=20
4d\ 4A\ 4F#\	.	16ff#\LL	.	>	4a/	-wie-	.
.	.	16dd'\	.	.	.	.	.
.	.	16ee'\	.	.	.	.	.
.	.	16ff#'\JJ	.	.	.	.	.
4A\ 4G\ 4E\)	.	16gg'\LL	.	.	8a/	-le,	.
.	.	16aa'\	.	.	.	.	.
.	.	16bb'\	.	]	8r	.	.
.	.	16ccc#'\JJ	.	pp	.	.	.
=21	=21	=21	=21	=21	=21	=21	=21
8d\L 8F#\ 8D'\	.	8ddd'\L	.	.	(8.dd\	bo	.
8f#\J 8A'\	.	8ff#'\J	.	.	.	.	.
.	.	.	.	.	16f#/)	to	.
8d\ 8F#'\	.	4ff#tt\	.	.	8f#/	ba-	.
8r	.	.	.	.	8f#/	-ga-	.
.	.	(>32qqee/LLL	.	.	.	.	.
.	.	32qqff#/	.	.	.	.	.
.	.	32qqgg/	.	.	.	.	.
.	.	32qqaa/JJJ	.	.	.	.	.
=22	=22	=22	=22	=22	=22	=22	=22
!LO:TX:t=P:problem=mixed beam	!	!	!	!	!	!	!
8GG/L	.	8bb\L)	.	.	4.b\	-te-	.
8e\J 8B\ 8G\	.	8ee'\J	.	.	.	.	.
8e\ 8B\ 8G\	.	(8ee\L	.	.	.	.	.
8r	.	16ff#\L	.	.	8b\	-le!	.
.	.	16gg\JJ)	.	.	.	.	.
!!LO:LB:g=original
=23	=23	=23	=23	=23	=23	=23	=23
!LO:TX:t=P:problem=mixed beam	!	!	!	!	!	!	!
8AA\L	.	(16bb\LL	.	.	16b/LL	bo	.
.	.	16aa\)	.	.	16a/JJ	.	.
8d\J 8F#\	.	16ff#\	.	.	16g#X/LL	to	.
.	.	16dd\JJ	.	.	16a/JJ	.	.
8A\	.	8a/	.	.	8.cc#\	ba-	.
8A/ 8AA/|	.	8ccc#\ 8gg\ 8ee\|	.	sf	.	.	.
.	.	.	.	.	16a/	-ga-	.
=24	=24	=24	=24	=24	=24	=24	=24
!	!	!LO:TX:t=P:problem=powtórka taktów 1-4	!	!	!	!	!
!LO:TX:t=P:problem=powtórka taktów 1-4	!	!	!	!	!	!	!
8D/ 8DD/	.	8ddd\L 8ff#\ 8dd\|	.	f	4dd\	-te-	.
(16A\LL 16D\	.	[8fff#\J [8ff#^^\	.	.	.	.	.
16d\JJ	.	.	.	.	.	.	.
!	!	!LO:TX:b:t=A	!	!	!	!	!
16A\LL 16D\	.	16fff#\]LL 16ff#\]	.	.	8d/	-le!	.
16d\	.	16eee'\	.	.	.	.	.
16A\ 16D\	.	16fff#'\	.	.	8r	.	.
16d\JJ)	.	16ddd'\JJ	.	.	.	.	.
=25	=25	=25	=25	=25	=25	=25	=25
(16A\LL 16D\	.	16ccc#'\LL	.	.	2r	.	.
16c#\)	.	16eee'\	.	.	.	.	.
(16B\	3	16ddd'\	.	.	.	.	.
16d\JJ)	1	16bb'\JJ	.	.	.	.	.
!	!	!LO:TX:b:t=B	!	!	!	!	!
(16c#\LL	2	16aa'\LL	.	.	.	.	.
16e\)	1	16bb'\	.	.	.	.	.
(16c#\ 16A\ 16G\	.	16gg'\	.	.	.	.	.
16e\JJ)	.	16ee'\JJ	.	.	.	.	.
=26	=26	=26	=26	=26	=26	=26	=26
8A\ 8F#\	4 2	(16cc#\LL	.	.	2r	.	.
.	.	16aa\JJ)	.	.	.	.	.
!	!	!LO:TX:b:t=C	!	!	!	!	!
8F#/L 8FF#/	.	(4ff#^\	.	.	.	.	.
8G/ 8GG/	.	.	.	.	.	.	.
8G#X/J 8GG#X/	.	32ee\LLL	.	.	.	.	.
.	.	32dd\	.	.	.	.	.
.	.	32cc#\	.	.	.	.	.
.	.	32b\JJJ	.	.	.	.	.
=27	=27	=27	=27	=27	=27	=27	=27
*	*	*^	*	*	*	*	*
8A/ 8AA/	.	8a/)	8ryy	.	.	2r	.	.
!	!	!LO:TX:b:t=D.	!	!	!	!	!	!
8d\L 8B\	.	(32ee/LLL	(>8f#\	.	.	.	.	.
.	.	32dd/	.	.	.	.	.	.
.	.	32cc#/	.	.	.	.	.	.
.	.	32dd/JJJ	.	.	.	.	.	.
8d\J 8B\ 8G\	.	8e/)	8e\)	.	.	.	.	.
8G\ 8GG\	.	8a/ 8e/ 8c#/	8ryy	.	.	.	.	.
*	*	*v	*v	*	*	*	*	*
!!pagebreak:original
=28	=28	=28	=28	=28	=28	=28	=28
(16F#\LL 16D\	.	8d/	.	.	2r	.	.
16A\)	.	.	.	.	.	.	.
!	!	!	!	!LO:DY:t=p.	!	!	!
16d\ 16F#'\	.	8r	.	p	.	.	.
16A'\JJ	.	.	.	.	.	.	.
8d\ 8F#'\	.	4ryy	.	.	.	.	.
8r	.	.	.	.	.	.	.
=29	=29	=29	=29	=29	=29	=29	=29
!	!	!	!	!	!LO:TX:a:t=(&colon; marząc &colon;):color=purple	!	!
(16F#\LL 16D\	.	4r	.	.	4a/	Lecz	.
16A\)	.	.	.	.	.	.	.
16d\ 16F#'\	.	.	.	.	.	.	.
16A'\JJ	.	.	.	.	.	.	.
8d\ 8F#'\	.	8r	.	.	8r	.	.
8r	.	8aa\	.	.	8a/	tak	.
=30	=30	=30	=30	=30	=30	=30	=30
.	.	(16qqaa/LL	.	.	.	.	.
.	.	16qqbb/	.	.	.	.	.
.	.	16qqccc#/JJ)	.	.	.	.	.
(16F#\LL 16D\	.	8ddd'\L	.	.	(4dd\	pięk-	.
16A\)	.	.	.	.	.	.	.
16d\ 16F#'\	.	8ff#\J 8dd'\	.	.	.	.	.
16A'\JJ	.	.	.	.	.	.	.
8d\ 8F#\	.	8ff#\L 8dd^^\	.	.	8f#/)	-nej	.
8r	.	(16gg\L 16ee\	.	.	8f#/	jak	.
.	.	16aa\JJ 16ff#\)	.	.	.	.	.
=31	=31	=31	=31	=31	=31	=31	=31
16GG'\LL	.	8bb\L 8gg'\	.	.	4a/	Zo-	.
16E'\	.	.	.	.	.	.	.
16B'\	.	8ee\J 8b'\	.	.	.	.	.
16E'\JJ	.	.	.	.	.	.	.
8e'\	.	8ee\ 8dd\ 8b^^\	.	.	8e/	-sia	.
8r	.	16ee'\LL	.	.	(16e/LL	nie	.
.	.	16ff#'\JJ	.	.	16f#/JJ)	.	.
=32	=32	=32	=32	=32	=32	=32	=32
16AA'\LL	.	(16gg\LL	.	.	4g/	zna-	.
16E'\	.	16ee\)	.	.	.	.	.
16G'\	.	16b'\	.	.	.	.	.
16A'\JJ	.	16cc#'\JJ	.	.	.	.	.
8c#'\	.	8a'/	.	.	8e/	-łem	.
8r	.	(16bb\LL	.	.	16b/LL	dziew-	.
.	.	16aa\JJ)	.	.	16a/JJ	.	.
!!LO:LB:g=original
=33	=33	=33	=33	=33	=33	=33	=33
16D'\LL	.	(16gg#X\LL	.	.	8g#X/	-czy-	.
16E#X'\	.	16bb\)	.	.	.	.	.
16F#'\	.	16aa'\	.	.	8a/	-ny!	.
16B'\JJ	.	16dd'\JJ	.	.	.	.	.
8A\	.	8ff#'\L	.	.	8r	.	.
8r	.	8aa'\J	.	.	8a/	jej	.
=34	=34	=34	=34	=34	=34	=34	=34
.	.	(16qqaa/LL	.	.	.	.	.
.	.	16qqbb/	.	.	.	.	.
.	.	16qqccc#/JJ)	.	.	.	.	.
16FF#'/LL	.	8ddd'\L	.	.	8dd\	o-	.
16D'/	.	.	.	.	.	.	.
16A'/	.	8ff#\J 8dd'\	.	.	8f#/	-czki	.
16D'/JJ	.	.	.	.	.	.	.
8d'\	.	8ff#\L 8dd^^\	.	.	8f#/	ja-	.
8r	.	(16gg\L	.	.	16g/LL	-ko	.
.	.	16aa\JJ)	.	.	16a/JJ	.	.
=35	=35	=35	=35	=35	=35	=35	=35
(16EE/LL	.	(16ccc#\LL	.	.	4.cc#\	ciar-	.
16BB/)	.	16bb\	.	.	.	.	.
16E'/	.	16gg\)	.	.	.	.	.
16G'/JJ	.	16ee\JJ	.	.	.	.	.
8B\	.	8b'\	.	.	.	.	.
8r	.	(16ee\LL	.	.	8b\	-ki,	.
.	.	16ff#\JJ)	.	.	.	.	.
=36	=36	=36	=36	=36	=36	=36	=36
!	!	!LO:TX:b:i:t=dolcissimo.	!	!	!	!	!
16AA'\LL	.	16aa'\LL	.	.	16a/LL	us-	.
16E'\	.	16gg#X'\	.	.	16g#X/JJ	.	.
16G'\	.	16ggn'\	.	.	16gn/LL	-ta	.
16A'\JJ	.	16ff#'\JJ	.	.	16f#/JJ	.	.
8c#\	.	(16ee\LL	.	.	8e/	jak	.
.	.	16dd\)	.	.	.	.	.
8r	.	16cc#\	.	.	8a/	ma-	.
.	.	16aa\JJ	.	.	.	.	.
=37	=37	=37	=37	=37	=37	=37	=37
16D'\LL	.	8dd'\L	.	.	8f#/	-li-	.
16F#'\	.	.	.	.	.	.	.
16A'\	.	(16ff#\L	.	.	8f#/	-ny!	.
16F#'\JJ	.	16a\JJ)	.	.	.	.	.
8d'\	.	8dd'\	.	.	8r	.	.
8r	.	16dd'\LL	.	.	8f#/	a	.
.	.	16ee'\JJ	.	.	.	.	.
!!LO:PB:g=original
=38	=38	=38	=38	=38	=38	=38	=38
!LO:TX:t=P:problem=powtórka taktów 15-17	!	!LO:TX:t=P:problem=powtórka taktów 15-17	!	!	!	!	!
!LO:TX:t=P:problem=mixed beam	!	!LO:TX:b:t=E	!	!	!	!	!
8BB'/L	.	16dd'\LL	.	.	8f#/	jej	.
.	.	16ff#'\	.	.	.	.	.
8d\J 8B\ 8F#'\	.	16ee'\	.	.	8f#/	gło-	.
.	.	16dd'\JJ	.	.	.	.	.
4e\ 4c#\ 4B\ 4G^\	.	16ee'\LL	.	.	8f#/	-se-	.
.	.	16cc#'\	.	.	.	.	.
.	.	16dd'\	.	.	8f#/	-czek	.
.	.	16ee'\JJ	.	.	.	.	.
=39	=39	=39	=39	=39	=39	=39	=39
!LO:TX:t=P:problem=mixed beam	!	!LO:TX:b:t=F.	!	!	!	!	!
8BB'/L	.	8dd'\L	.	.	4.b\	wdzięcz-	.
8d\J 8F#'\	.	8b'\J	.	.	.	.	.
8B\ 8D'\	.	(8b^\L	.	.	.	.	.
8r	.	16cc#\L	.	.	8b\	-ny	.
.	.	16dd\JJ)	.	.	.	.	.
=40	=40	=40	=40	=40	=40	=40	=40
8E'\L	.	(16ee\LL	.	.	8cc#\	jak	.
!	!	!LO:TX:b:t=G.	!	!	!	!	!
.	.	16dd\)	.	.	.	.	.
8e\J 8c#\ 8A'\	.	16cc#'\	.	.	8a\	sło-	.
.	.	16aa'\JJ	.	.	.	.	.
8E'\L	.	16dd'\LL	.	.	8b\	-wi-	.
.	.	16cc#'\	.	.	.	.	.
8e\J 8B\ 8G#X'\	.	16dd'\	.	.	8g#X/	-ka	.
.	.	16b'\JJ	.	.	.	.	.
*clefG2	*	*	*	*	*	*	*
=41	=41	=41	=41	=41	=41	=41	=41
(8A^/L	.	8a/	.	.	8a/	tre-	.
.	.	(8qbb/	.	.	.	.	.
16c#/L	.	8aa'\L)	.	.	8a/	-le!	.
16e/JJ	.	.	.	.	.	.	.
!	!	!	!	!	!LO:TX:a:i:t=(&colon; zamyśla się&colon;)	!	!
.	.	(8qbb/	.	.	.	.	.
8a'/)	.	8aa'\)	.	.	4r	.	.
.	.	8qbb/	.	.	.	.	.
8r	.	8aa'\J	.	.	.	.	.
!!LO:LB:g=original
=42	=42	=42	=42	=42	=42	=42	=42
*	*	*8va	*	*	*	*	*
!	!	!LO:TX:b:i:t=scherzando	!	!LO:DY:t=p.	!	!	!
2aTT/	.	[4aaa\ [>4fff#^^\	.	p	2r	.	.
.	.	16aaa\]LL 16fff#\]	.	.	.	.	.
.	.	16fff#\ 16ddd#X'\	.	.	.	.	.
.	.	16eee\ 16ccc#'\	2 3	.	.	.	.
.	.	16ggg\JJ 16eee'\	3 5	.	.	.	.
=43	=43	=43	=43	=43	=43	=43	=43
2aTTT/	.	16fff#\LL 16dddn'\	2 4	.	2r	.	.
.	.	16ddd\ 16bb'\	.	1 2	.	.	.
.	.	16ccc#\ 16aa#X'\	2 3	.	.	.	.
.	.	16eee\JJ 16ccc#'\	3 5	.	.	.	.
.	.	16ddd/LL 16bb'/	2 4	.	.	.	.
.	.	16bb/ 16gg'/	.	1 2	.	.	.
.	.	16aa#X/ 16ff#'/	2 3	.	.	.	.
.	.	16ccc#/JJ 16aan'/	3 5	.	.	.	.
=44	=44	=44	=44	=44	=44	=44	=44
2aTTT/	.	16bb/LL 16gg'/	2 4	.	2r	.	.
.	.	16gg/ 16ee'/	.	1 2	.	.	.
.	.	16ff#/ 16dd#X'/	2 3	.	.	.	.
.	.	16aa/JJ 16ff#'/	3 5	.	.	.	.
.	.	16gg/LL 16ee'/	2 4	.	.	.	.
.	.	16aa/ 16ff#'/	.	3 5	.	.	.
.	.	16ff#/ 16dd#'/	2 3	.	.	.	.
.	.	16aa/JJ 16ff#'/	3 5	.	.	.	.
16qqg#X/LL	.	.	.	.	.	.	.
16qqa/JJ	.	.	.	.	.	.	.
*	*	*X8va	*	*	*	*	*
=45	=45	=45	=45	=45	=45	=45	=45
8A/	.	16gg\LL 16ee'\	2 4	.	2r	.	.
.	.	16ff#\ 16dd'\	.	1 3	.	.	.
8r	.	16ee\ 16cc#'\	.	3 5	.	.	.
.	.	16dd\JJ 16b'\	.	.	.	.	.
8r	.	(16cc#\LL	.	.	.	.	.
.	.	16a\)	.	.	.	.	.
*clefF4	*	*	*	*	*	*	*
[8e\ [8A\	.	16b'\	.	.	.	.	.
.	.	16cc#'\JJ	.	.	.	.	.
!!LO:LB:g=original
=46	=46	=46	=46	=46	=46	=46	=46
(<8e\] 8A\]	.	(16dd\LL	.	.	2r	.	.
.	.	16b\)	.	.	.	.	.
4e\ 4B\ 4G#X\	.	16cc#'\	.	.	.	.	.
.	.	16dd'\JJ	.	.	.	.	.
.	.	(16ee\LL	.	.	.	.	.
.	.	16cc#\)	.	.	.	.	.
[8e\ [8A\ [8Gn\	.	16dd'\	.	.	.	.	.
.	.	16ee'\JJ	.	.	.	.	.
=47	=47	=47	=47	=47	=47	=47	=47
8e\] 8A\] 8G\]	.	(16ff#\LL	.	.	2r	.	.
.	.	16dd\)	.	.	.	.	.
4d\ 4A\ 4F#\	.	16ee'\	.	.	.	.	.
.	.	16ff#'\JJ	.	.	.	.	.
.	.	16gg'\LL	.	.	.	.	.
.	.	16aa'\	.	.	.	.	.
[8A\ [8G\ [8E\	.	16bb'\	.	.	.	.	.
.	.	16ccc#'\JJ	.	.	.	.	.
=48	=48	=48	=48	=48	=48	=48	=48
!	!	!	!	!	!	!	!LO:DY:rj
8A\] 8G\] 8E\])	.	8ddd\L|	.	.	(8.dd\	To	p
!	!	!	!	!	!	!	!
8d\L 8F#\ 8D\|	.	8ff#\J 8dd\|	.	.	.	.	.
.	.	.	.	.	16f#/)	nie	.
!	!	!	!	!	!	!	!
8d\ 8A\ 8F#\|	.	8ff#\L 8dd\|	.	.	8f#/	ba-	.
!	!	!	!	!	!	!	!
8d\J 8A\ 8D\|	.	(16gg\L	.	.	8f#/	-ga-	.
.	.	16aa\JJ)	.	.	.	.	.
=49	=49	=49	=49	=49	=49	=49	=49
8r	.	(16ccc#\LL	.	.	4.b/	-te-	.
.	.	16bb\	.	.	.	.	.
!	!	!	!	!	!	!	!
8B\L 8G\|	.	16gg\	.	.	.	.	.
.	.	16ee\JJ)	.	.	.	.	.
!	!	!	!	!	!	!	!
8e\ 8B\ 8G\|	.	8b\	.	.	.	.	.
!	!	!	!	!	!	!	!
8e#X\J 8G#X\|	.	8bb\ 8dd\|	.	.	8b/	-le!	.
=50	=50	=50	=50	=50	=50	=50	=50
*	*	*^	*	*	*	*	*
(4f#\ 4A\	.	(<16bb/LL	(4dd\	.	>	16b/LL	to	.
.	.	16aa/	.	.	.	16a/JJ	.	.
.	.	16gg#X/	.	.	.	16g#X/LL	nie	.
.	.	16aa/JJ	.	.	.	16a/JJ	.	.
8e\ 8A\)	.	8aa/)	8cc#\)	.	]	8.a/	ba-	.
8A/ 8AA'/	.	8ryy	8ccc#\ 8aa\ 8ee'\	.	sf	.	.	.
.	.	.	.	.	.	16c#/	-ga-	.
*	*	*v	*v	*	*	*	*	*
!!LO:LB:g=original
=51	=51	=51	=51	=51	=51	=51	=51
!	!	!LO:TX:t=P:problem=powtórka taktów 1-4	!	!	!	!	!
!LO:TX:t=P:problem=powtórka taktów 1-4	!	!	!	!	!	!	!
8D/ 8DD/	.	8ddd\L 8ff#\ 8dd\	.	f	8d/@	-te-	.
(16A\LL 16D\	.	[8fff#\J [8ff#^^\	.	.	8d/@	-le!	.
16d\JJ	.	.	.	.	.	.	.
!	!	!LO:TX:b:t=A	!	!	!	!	!
16A\LL 16D\	.	16fff#\]LL 16ff#\]	.	.	4r@	.	.
16d\	.	16eee'\	.	.	.	.	.
16A\ 16D\	.	16fff#'\	.	.	.	.	.
16d\JJ)	.	16ddd'\JJ	.	.	.	.	.
=52	=52	=52	=52	=52	=52	=52	=52
(16A\LL 16D\	.	16ccc#'\LL	.	.	2r	.	.
16c#\)	.	16eee'\	.	.	.	.	.
(16B\	3	16ddd'\	.	.	.	.	.
16d\JJ)	1	16bb'\JJ	.	.	.	.	.
!	!	!LO:TX:b:t=B	!	!	!	!	!
(16c#\LL	2	16aa'\LL	.	.	.	.	.
16e\)	1	16bb'\	.	.	.	.	.
!	!	!	!	!	!	!	!
(16c#\ 16A\ 16G\	.	16gg\	.	.	.	.	.
!	!	!	!	!	!	!	!
16e\JJ)	.	16ee\JJ	.	.	.	.	.
=53	=53	=53	=53	=53	=53	=53	=53
8A\ 8F#\	4 2	(16cc#\LL	.	.	2r	.	.
.	.	16aa\JJ)	.	.	.	.	.
!	!	!LO:TX:b:t=C	!	!	!	!	!
8F#/L 8FF#/	.	(4ff#^\	.	.	.	.	.
8G/ 8GG/	.	.	.	.	.	.	.
8G#X/J 8GG#X/	.	32ee\LLL	.	.	.	.	.
.	.	32dd\	.	.	.	.	.
.	.	32cc#\	.	.	.	.	.
.	.	32b\JJJ	.	.	.	.	.
=54	=54	=54	=54	=54	=54	=54	=54
*	*	*^	*	*	*	*	*
8A/ 8AA/	.	8a/)	8ryy	.	.	2r	.	.
!	!	!LO:TX:b:t=D	!	!	!	!	!	!
8d\L 8B\	.	(32ee/LLL	(>8f#\	.	.	.	.	.
.	.	32dd/	.	.	.	.	.	.
.	.	32cc#/	.	.	.	.	.	.
.	.	32dd/JJJ	.	.	.	.	.	.
8d\J 8B\ 8G\	.	8e/)	8e\)	.	.	.	.	.
8G\ 8GG\	.	8a/ 8e/ 8c#/	8ryy	.	.	.	.	.
*	*	*v	*v	*	*	*	*	*
=55	=55	=55	=55	=55	=55	=55	=55
4A\ 4F#\	.	4d/ 4A^/	.	.	2r	.	.
4r	.	4r	.	.	.	.	.
==	==	==	==	==	==	==	==
*-	*-	*-	*-	*-	*-	*-	*-
!!!system-decoration: {s1,<(g1)>}
!!!RDF**kern: > = above
!!!RDF**kern: < = below
!!!RDF**kern: @ = marked note, color=purple
!!!RDF**kern: | = vertical stroke
!!!ENC: Andrzej Gręziak
!!!END: 2021-08-17
!!!EED: Andrzej Borzym
!!!EEV: 2021-09-23
!!!YEC: Copyright 2022 Narodowy Instytut Fryderyka Chopina (https://polishscores.org)
!!!YEM: License CC-BY-4.0 (https://creativecommons.org/licenses/by/4.0)
